assets/icons/qvision/7k_plus.svg

<svg xmlns="http://www.w3.org/2000/svg" height="24" viewBox="0 0 24 24" width="24"><path d="M0 0h24v24H0V0z" fill="none"/><path d="M19 3H5c-1.1 0-2 .9-2 2v14c0 1.1.9 2 2 2h14c1.1 0 2-.9 2-2V5c0-1.1-.9-2-2-2zM8 15H6.25l1.38-4.5H5V9h3.5c.67 0 1.15.65.96 1.29L8 15zm8 0h-1.75l-1.75-2.25V15H11V9h1.5v2.25L14.25 9H16l-2.25 3L16 15zm4-2.5h-1.5V14h-1v-1.5H16v-1h1.5V10h1v1.5H20v1z"/></svg>

<svg width="24" height="24" viewBox="0 0 24 24" fill="none" xmlns="http://www.w3.org/2000/svg">
<g clip-path="url(#clip0_147_1356)">
<path d="M19 3H5C3.9 3 3 3.9 3 5V19C3 20.1 3.9 21 5 21H19C20.1 21 21 20.1 21 19V5C21 3.9 20.1 3 19 3ZM8 15H6.25L7.63 10.5H5V9H8.5C9.17 9 9.65 9.65 9.46 10.29L8 15ZM16 15H14.25L12.5 12.75V15H11V9H12.5V11.25L14.25 9H16L13.75 12L16 15ZM20 12.5H18.5V14H17.5V12.5H16V11.5H17.5V10H18.5V11.5H20V12.5Z" fill="#323232"/>
</g>
<defs>
<clipPath id="clip0_147_1356">
<rect width="24" height="24" fill="white"/>
</clipPath>
</defs>
</svg>
